rospo-icon-theme-classic-common/32x32/places/folder-grey-script.svg

<svg height="32" width="32" xmlns="http://www.w3.org/2000/svg"><rect height="16" opacity=".2" rx="1.25" width="25" x="3" y="12"/><path d="m3 21.75c0 .692.5575 1.25 1.25 1.25h22.5c.692 0 1.25-.558 1.25-1.25v-13.5c0-.6925-.558-1.25-1.25-1.25h-12.75v-.75c0-.6925-.557-1.25-1.25-1.25h-8.5c-.6925 0-1.25.5575-1.25 1.25" fill="#727272"/><rect height="16" opacity=".2" rx="1.25" width="25" x="3" y="10"/><rect fill="#e4e4e4" height="10" rx="1.25" width="21" x="5" y="9"/><rect fill="#8e8e8e" height="16" rx="1.25" width="25" x="3" y="11"/><path d="m4.25 5c-.6925 0-1.25.5575-1.25 1.25v1c0-.6925.5575-1.25 1.25-1.25h8.5c.693 0 1.25.5575 1.25 1.25v.75h12.75c.692 0 1.25.5575 1.25 1.25v-1c0-.6925-.558-1.25-1.25-1.25h-12.75v-.75c0-.6925-.557-1.25-1.25-1.25z" fill="#fff" opacity=".1"/><g transform="translate(-16.5 12)"><path d="m25.5 1v12h12v-12z" fill="#323232"/><g fill="#8e8e8e"><path d="m32.5 8h4v1h-4z"/><path d="m28.5 2h1v7h-1z"/><path d="m28 3c-.83 0-1.5.67-1.5 1.5s.67 1.5 1.5 1.5h1.5.5c.28 0 .5.22.5.5s-.22.51-.5.5h-.5-1.5-1.41c.21.58.76 1 1.41 1h1.5.5c.83 0 1.5-.67 1.5-1.5s-.67-1.5-1.5-1.5h-.5-1.5c-.28 0-.5-.22-.5-.5s.22-.5.5-.5h1.5.5 1.41c-.21-.58-.76-1-1.41-1h-.5z"/></g></g></svg>

<svg xmlns="http://www.w3.org/2000/svg" width="32" height="32" version="1">
 <rect style="opacity:0.2" width="25" height="16" x="3" y="12" rx="1.25" ry="1.25"/>
 <path style="fill:#727272" d="M 3,21.75 C 3,22.442 3.5575,23 4.25,23 H 26.75 C 27.442,23 28,22.442 28,21.75 V 8.25 C 28,7.5575 27.442,7 26.75,7 H 14 V 6.25 C 14,5.5575 13.443,5 12.75,5 H 4.25 C 3.5575,5 3,5.5575 3,6.25"/>
 <rect style="opacity:0.2" width="25" height="16" x="3" y="10" rx="1.25" ry="1.25"/>
 <rect style="fill:#dcdcdc" width="21" height="10" x="5" y="9" rx="1.25" ry="1.25"/>
 <rect style="fill:#8e8e8e" width="25" height="16" x="3" y="11" rx="1.25" ry="1.25"/>
 <path style="opacity:0.1;fill:#ffffff" d="M 4.25 5 C 3.5575 5 3 5.5575 3 6.25 L 3 7.25 C 3 6.5575 3.5575 6 4.25 6 L 12.75 6 C 13.443 6 14 6.5575 14 7.25 L 14 8 L 26.75 8 C 27.442 8 28 8.5575 28 9.25 L 28 8.25 C 28 7.5575 27.442 7 26.75 7 L 14 7 L 14 6.25 C 14 5.5575 13.443 5 12.75 5 L 4.25 5 z"/>
 <g transform="translate(-16.5,12)">
  <path style="fill:#323232" d="M 25.5,1 V 13 H 37.5 V 1 Z"/>
  <g style="fill:#8e8e8e">
   <path style="fill:#8e8e8e" d="M 32.5,8 H 36.5 V 9 H 32.5 Z"/>
   <rect style="fill:#8e8e8e" width="1" height="7" x="28.5" y="2"/>
   <path style="fill:#8e8e8e" d="M 28,3 C 27.17,3 26.5,3.67 26.5,4.5 26.5,5.33 27.17,6 28,6 H 29.5 30 C 30.28,6 30.5,6.22 30.5,6.5 30.5,6.78 30.28,7.01 30,7 H 29.5 28 26.59 C 26.8,7.58 27.35,8 28,8 H 29.5 30 C 30.83,8 31.5,7.33 31.5,6.5 31.5,5.67 30.83,5 30,5 H 29.5 28 C 27.72,5 27.5,4.78 27.5,4.5 27.5,4.22 27.72,4 28,4 H 29.5 30 31.41 C 31.2,3.42 30.65,3 30,3 H 29.5 Z"/>
  </g>
 </g>
</svg>
